img/sun.svg

<?xml version="1.0" encoding="UTF-8"?>
<!-- Generated by Pixelmator Pro 3.2.2 -->
<svg width="43" height="44" viewBox="0 0 43 44" xmlns="http://www.w3.org/2000/svg" xmlns:xlink="http://www.w3.org/1999/xlink">
    <path id="sun" fill="currentcolor" fill-rule="evenodd" stroke="none" d="M 21.628906 8.304688 C 22.546875 8.304688 23.308594 7.542969 23.308594 6.605469 L 23.308594 2.40625 C 23.308594 1.46875 22.546875 0.707031 21.628906 0.707031 C 20.691406 0.707031 19.929688 1.46875 19.929688 2.40625 L 19.929688 6.605469 C 19.929688 7.542969 20.691406 8.304688 21.628906 8.304688 Z M 31.199219 12.308594 C 31.863281 12.953125 32.9375 12.972656 33.601563 12.308594 L 36.589844 9.320313 C 37.234375 8.675781 37.234375 7.582031 36.589844 6.917969 C 35.945313 6.273438 34.871094 6.273438 34.207031 6.917969 L 31.199219 9.925781 C 30.554688 10.589844 30.554688 11.664063 31.199219 12.308594 Z M 12.019531 12.308594 C 12.664063 11.683594 12.664063 10.570313 12.039063 9.925781 L 9.050781 6.917969 C 8.40625 6.292969 7.3125 6.273438 6.667969 6.917969 C 6.023438 7.582031 6.023438 8.675781 6.648438 9.300781 L 9.636719 12.308594 C 10.28125 12.953125 11.355469 12.953125 12.019531 12.308594 Z M 21.609375 31.859375 C 27.039063 31.859375 31.550781 27.347656 31.550781 21.898438 C 31.550781 16.429688 27.039063 11.917969 21.609375 11.917969 C 16.179688 11.917969 11.667969 16.429688 11.667969 21.898438 C 11.667969 27.347656 16.179688 31.859375 21.609375 31.859375 Z M 35.164063 21.898438 C 35.164063 22.816406 35.945313 23.578125 36.863281 23.578125 L 41.0625 23.578125 C 41.980469 23.578125 42.742188 22.816406 42.742188 21.898438 C 42.742188 20.980469 41.980469 20.199219 41.0625 20.199219 L 36.863281 20.199219 C 35.945313 20.199219 35.164063 20.980469 35.164063 21.898438 Z M 8.074219 21.898438 C 8.074219 20.980469 7.292969 20.199219 6.375 20.199219 L 2.175781 20.199219 C 1.257813 20.199219 0.496094 20.980469 0.496094 21.898438 C 0.496094 22.816406 1.257813 23.578125 2.175781 23.578125 L 6.375 23.578125 C 7.292969 23.578125 8.074219 22.816406 8.074219 21.898438 Z M 12.039063 31.488281 C 11.375 30.863281 10.28125 30.863281 9.636719 31.488281 L 6.648438 34.476563 C 6.003906 35.121094 6.003906 36.195313 6.628906 36.859375 C 7.273438 37.484375 8.367188 37.503906 9.03125 36.878906 L 12.019531 33.871094 C 12.664063 33.226563 12.664063 32.152344 12.039063 31.488281 Z M 31.199219 31.488281 C 30.554688 32.152344 30.554688 33.226563 31.199219 33.871094 L 34.207031 36.898438 C 34.871094 37.523438 35.945313 37.503906 36.589844 36.878906 C 37.234375 36.214844 37.234375 35.140625 36.589844 34.496094 L 33.582031 31.488281 C 32.9375 30.863281 31.863281 30.863281 31.199219 31.488281 Z M 21.628906 35.492188 C 20.691406 35.492188 19.929688 36.253906 19.929688 37.171875 L 19.929688 41.390625 C 19.929688 42.308594 20.691406 43.070313 21.628906 43.070313 C 22.546875 43.070313 23.308594 42.308594 23.308594 41.390625 L 23.308594 37.171875 C 23.308594 36.253906 22.546875 35.492188 21.628906 35.492188 Z"/>
</svg>

<svg width="43" height="44" viewBox="0 0 43 44" xmlns="http://www.w3.org/2000/svg" xmlns:xlink="http://www.w3.org/1999/xlink">
	<path id="sun" fill="currentcolor" fill-rule="evenodd" stroke="none" d="M21.63 8.3a1.7 1.7 0 0 0 1.68-1.7V2.4c0-.93-.76-1.7-1.68-1.7-.94 0-1.7.77-1.7 1.7v4.2c0 .94.76 1.7 1.7 1.7Zm9.57 4a1.7 1.7 0 0 0 2.4 0l2.99-2.98c.64-.64.64-1.74 0-2.4a1.71 1.71 0 0 0-2.38 0l-3.01 3a1.71 1.71 0 0 0 0 2.39Zm-19.18 0c.64-.62.64-1.73.02-2.37L9.05 6.92a1.73 1.73 0 0 0-2.38 0 1.73 1.73 0 0 0-.02 2.38l2.99 3a1.7 1.7 0 0 0 2.38 0Zm9.59 19.56c5.43 0 9.94-4.51 9.94-9.96 0-5.47-4.51-9.98-9.94-9.98s-9.94 4.51-9.94 9.98c0 5.45 4.51 9.96 9.94 9.96Zm13.55-9.96c0 .92.79 1.68 1.7 1.68h4.2a1.7 1.7 0 0 0 1.68-1.68c0-.92-.76-1.7-1.68-1.7h-4.2c-.91 0-1.7.78-1.7 1.7Zm-27.09 0c0-.92-.78-1.7-1.7-1.7h-4.2A1.7 1.7 0 0 0 .5 21.9c0 .92.76 1.68 1.68 1.68h4.2c.91 0 1.7-.76 1.7-1.68Zm3.97 9.59a1.77 1.77 0 0 0-2.4 0l-3 2.99a1.73 1.73 0 0 0-.01 2.38c.64.62 1.74.64 2.4.02l2.99-3c.64-.65.64-1.73.02-2.4Zm19.16 0a1.71 1.71 0 0 0 0 2.38l3 3.03c.67.62 1.75.6 2.39-.02.64-.67.64-1.74 0-2.38l-3-3.01a1.75 1.75 0 0 0-2.4 0Zm-9.57 4c-.94 0-1.7.76-1.7 1.68v4.22a1.7 1.7 0 0 0 3.38 0v-4.22a1.7 1.7 0 0 0-1.68-1.68Z"/>
</svg>
